X: 34210
T: Reel Québécois
R: reel
M: 4/4
K: Amajor
|:Ec Bc|dB Gz/E/|Ed cd|ec Az|
Ec Bc|dB Gz/E/|EE FG|BA Az:|
|:e/e/e/e/ ec/e/|dB Gz|f/f/f/f/ fe/e/|ec Az|
e/e/e/e/ ec/e/|dB Gz|EE FG|BA Az:|

